imgs/twit.svg

<svg width="18" height="18" viewBox="0 0 18 18" fill="none" xmlns="http://www.w3.org/2000/svg">
<g clip-path="url(#clip0_1_405)">
<path d="M0 9C0 4.02938 4.02938 0 9 0C13.9706 0 18 4.02938 18 9C18 13.9706 13.9706 18 9 18C4.02938 18 0 13.9706 0 9Z" fill="#3FA4F1"/>
<path d="M8.73037 7.31546L8.74912 7.62671L8.4345 7.58846C7.28887 7.44221 6.288 6.94646 5.43825 6.11396L5.02237 5.70109L4.9155 6.00596C4.689 6.68621 4.83375 7.40434 5.3055 7.88734C5.5575 8.15434 5.50087 8.19221 5.06662 8.03359C4.9155 7.98259 4.78312 7.94434 4.77037 7.96346C4.7265 8.00809 4.87763 8.58634 4.99725 8.81509C5.16113 9.13309 5.4945 9.44434 5.85975 9.62884L6.16837 9.77509L5.80312 9.78109C5.45063 9.78109 5.43787 9.78746 5.47575 9.92096C5.60175 10.3342 6.099 10.7726 6.65325 10.9635L7.04325 11.097L6.7035 11.3002C6.18922 11.5957 5.60899 11.7574 5.016 11.7705C4.73288 11.7768 4.5 11.8023 4.5 11.8215C4.5 11.8852 5.268 12.2407 5.715 12.3806C7.056 12.7938 8.64862 12.6157 9.84487 11.9103C10.6946 11.4082 11.5444 10.4103 11.9411 9.44434C12.1549 8.92946 12.369 7.98896 12.369 7.53784C12.369 7.24534 12.3877 7.20709 12.7402 6.85759C12.9484 6.65434 13.1434 6.43196 13.1812 6.36821C13.2442 6.24746 13.2379 6.24746 12.9169 6.35546C12.3817 6.54634 12.306 6.52084 12.5707 6.23471C12.7657 6.03146 12.9986 5.66284 12.9986 5.55484C12.9986 5.53609 12.9041 5.56759 12.7972 5.62459C12.684 5.68834 12.432 5.78359 12.2434 5.84096L11.9032 5.94896L11.5946 5.73896C11.4247 5.62459 11.1859 5.49746 11.0599 5.45959C10.7385 5.37034 10.2476 5.38309 9.95812 5.48509C9.171 5.77084 8.67375 6.50809 8.73037 7.31509V7.31546Z" fill="white"/>
</g>
<defs>
<clipPath id="clip0_1_405">
<rect width="18" height="18" fill="white"/>
</clipPath>
</defs>
</svg>

<svg xmlns="http://www.w3.org/2000/svg" width="18" height="18" fill="none" xmlns:v="https://vecta.io/nano"><g clip-path="url(#A)"><path d="M0 9a9 9 0 1 1 18 0A9 9 0 1 1 0 9z" fill="#3fa4f1"/><path d="M8.73 7.315l.019.311-.315-.038c-1.146-.146-2.146-.642-2.996-1.475l-.416-.413-.107.305c-.226.68-.082 1.398.39 1.881.252.267.195.305-.239.146-.151-.051-.284-.089-.296-.07-.044.045.107.623.227.852.164.318.497.629.862.814l.309.146-.365.006c-.352 0-.365.006-.327.14.126.413.623.852 1.178 1.043l.39.133-.34.203c-.514.296-1.095.457-1.687.47-.283.006-.516.032-.516.051 0 .064.768.419 1.215.559a5.32 5.32 0 0 0 4.13-.47c.85-.502 1.7-1.5 2.096-2.466.214-.515.428-1.455.428-1.907 0-.293.019-.331.371-.68.208-.203.403-.426.441-.489.063-.121.057-.121-.264-.013-.535.191-.611.165-.346-.121.195-.203.428-.572.428-.68 0-.019-.095.013-.201.07a3.51 3.51 0 0 1-.554.216l-.34.108-.309-.21c-.17-.114-.409-.241-.535-.279-.321-.089-.812-.077-1.102.025-.787.286-1.284 1.023-1.228 1.83h0z" fill="#fff"/></g><defs><clipPath id="A"><path fill="#fff" d="M0 0h18v18H0z"/></clipPath></defs></svg>
